icons/underweight.svg

<svg width="48" height="48" viewBox="0 0 48 48" fill="none" xmlns="http://www.w3.org/2000/svg">
<path fill-rule="evenodd" clip-rule="evenodd" d="M19.9999 8.5C19.9999 6.01472 22.0146 4 24.4999 4C26.9852 4 28.9999 6.01472 28.9999 8.5C28.9999 10.9853 26.9852 13 24.4999 13C22.0146 13 19.9999 10.9853 19.9999 8.5ZM24.4999 6C23.1192 6 21.9999 7.11929 21.9999 8.5C21.9999 9.88071 23.1192 11 24.4999 11C25.8806 11 26.9999 9.88071 26.9999 8.5C26.9999 7.11929 25.8806 6 24.4999 6ZM29.9482 17.3378C25.6861 16.1899 22.3056 16.2402 18.0529 17.3744C17.9707 17.3964 17.8954 17.4389 17.8342 17.498C17.4473 17.8721 17.155 18.4991 16.9215 19.1652C16.68 19.8544 16.4732 20.6722 16.2951 21.5024C16.0524 22.6346 15.8486 23.8709 15.6893 24.8388L15.688 24.847C15.6202 25.2587 15.5594 25.6279 15.508 25.9106C15.4586 26.1822 15.6388 26.4425 15.9105 26.4919C16.1822 26.5413 16.4425 26.3611 16.4919 26.0894C16.555 25.7422 16.6217 25.3365 16.6965 24.8807L16.698 24.8718C16.8504 23.9434 17.0336 22.8279 17.2729 21.712C17.4472 20.8995 17.6437 20.128 17.8653 19.4959C17.9707 19.195 18.079 18.934 18.189 18.7192L18.3963 18.3146L18.8373 18.2047C19.2524 18.1014 19.6597 18.009 20.0611 17.9278L20.967 17.7446L23.0625 25.0789L20.4999 30.7166V41.5C20.4999 41.7761 20.7238 42 20.9999 42C21.2761 42 21.4999 41.7761 21.4999 41.5V29.5H26.4999L26.4999 41.5C26.4999 41.7761 26.7238 42 26.9999 42C27.2761 42 27.4999 41.7761 27.4999 41.5L27.4999 30.7166L24.9374 25.0789L27.0416 17.7142L27.9448 17.8934C28.3956 17.9829 28.8535 18.0875 29.3212 18.2071L29.666 18.2953L29.8776 18.5815C30.0304 18.7881 30.1925 19.0811 30.3505 19.4938C30.5889 20.1164 30.7684 20.8787 30.9109 21.6892C31.0531 22.4974 31.1554 23.334 31.2455 24.1024L31.273 24.3376C31.3515 25.01 31.424 25.6275 31.508 26.0894C31.5574 26.3611 31.8177 26.5413 32.0894 26.4919C32.3611 26.4425 32.5413 26.1822 32.4919 25.9106C32.4135 25.4795 32.3461 24.9032 32.2682 24.2374L32.2387 23.9858C32.1485 23.2174 32.0434 22.3553 31.8958 21.516C31.7486 20.6793 31.5559 19.8454 31.2844 19.1361C31.0178 18.4401 30.6489 17.7925 30.1052 17.4112C30.0575 17.3778 30.0044 17.353 29.9482 17.3378ZM17.5375 15.442C22.1108 14.2222 25.8489 14.1625 30.4683 15.4066C30.7494 15.4824 31.0151 15.6066 31.2535 15.7737C32.289 16.4999 32.8383 17.6015 33.1521 18.4209C33.49 19.3033 33.7092 20.2804 33.8656 21.1695C34.0241 22.071 34.1349 22.984 34.2251 23.7526L34.2506 23.9707C34.251 23.9735 34.2513 23.9767 34.2517 23.9795C34.334 24.6833 34.3943 25.1934 34.4596 25.5528C34.7066 26.9112 33.8056 28.2127 32.4472 28.4597C31.0887 28.7067 29.7873 27.8057 29.5403 26.4472C29.4436 25.9154 29.3644 25.2368 29.2894 24.5942L29.2592 24.3355C29.2592 24.3354 29.2592 24.3357 29.2592 24.3355C29.169 23.5673 29.0723 22.7814 28.9412 22.0357C28.8077 21.277 28.6547 20.6581 28.4827 20.209C28.4678 20.1701 28.4534 20.1342 28.4396 20.1011L27.0625 24.9211L29.4999 30.2834L29.4999 41.5C29.4999 42.8807 28.3807 44 26.9999 44C25.6192 44 24.4999 42.8807 24.4999 41.5L24.4999 31.5H23.4999V41.5C23.4999 42.8807 22.3807 44 20.9999 44C19.6192 44 18.4999 42.8807 18.4999 41.5V30.2834L20.9374 24.9211L19.658 20.4434C19.51 20.9154 19.3661 21.4897 19.2285 22.1314C19.0001 23.1962 18.8238 24.2687 18.6701 25.2048L18.6691 25.2111C18.5954 25.6595 18.5261 26.0814 18.4596 26.4472C18.2126 27.8057 16.9112 28.7067 15.5527 28.4597C14.1943 28.2127 13.2933 26.9112 13.5403 25.5528C13.5883 25.2885 13.6465 24.9355 13.7159 24.5139L13.7174 24.5046C13.8753 23.5454 14.0859 22.2662 14.3396 21.083C14.5252 20.2177 14.7525 19.3073 15.0341 18.5037C15.2798 17.8028 15.6959 16.7835 16.4442 16.0601C16.7501 15.7644 17.1264 15.5516 17.5375 15.442Z" fill="black"/>
</svg>

<svg
  xmlns="http://www.w3.org/2000/svg"
  width="24"
  height="24"
  viewBox="0 0 24 24"
  fill="none"
  stroke="currentColor"
  stroke-width="2"
  stroke-linecap="round"
  stroke-linejoin="round"
>
  <path
    fill-rule="evenodd"
    d="M20 8.5a4.5 4.5 0 1 1 9 0 4.5 4.5 0 0 1-9 0M24.5 6a2.5 2.5 0 1 0 0 5 2.5 2.5 0 0 0 0-5m5.448 11.338c-4.262-1.148-7.642-1.098-11.895.036a.5.5 0 0 0-.219.124c-.387.374-.679 1.001-.912 1.667-.242.69-.449 1.507-.627 2.337a73 73 0 0 0-.606 3.337l-.001.008c-.068.412-.129.78-.18 1.064a.5.5 0 1 0 .984.178q.094-.522.204-1.208l.002-.01c.152-.928.336-2.043.575-3.159.174-.812.37-1.584.592-2.216q.159-.453.324-.777l.207-.404.441-.11q.623-.156 1.224-.277l.906-.183 2.096 7.334-2.563 5.638V41.5a.5.5 0 0 0 1 0v-12h5v12a.5.5 0 0 0 1 0V30.717l-2.563-5.638 2.105-7.365.903.18q.675.134 1.376.313l.345.088.212.286c.152.207.314.5.473.913.238.622.417 1.385.56 2.195.142.808.244 1.645.334 2.413l.028.236c.079.672.151 1.29.235 1.751a.5.5 0 0 0 .984-.178c-.078-.431-.146-1.008-.224-1.674l-.03-.251c-.09-.769-.195-1.63-.342-2.47-.147-.837-.34-1.67-.612-2.38-.266-.696-.635-1.343-1.179-1.725a.5.5 0 0 0-.157-.073m-12.41-1.896c4.573-1.22 8.31-1.28 12.93-.035.281.075.547.2.785.367 1.036.726 1.585 1.828 1.9 2.647.337.882.556 1.86.713 2.749.158.901.269 1.814.36 2.583l.025.218v.009c.083.703.143 1.213.209 1.573a2.5 2.5 0 1 1-4.92.894c-.096-.532-.176-1.21-.25-1.853l-.03-.259a41 41 0 0 0-.319-2.3c-.133-.758-.286-1.377-.458-1.826l-.043-.108-1.378 4.82 2.438 5.362V41.5a2.5 2.5 0 1 1-5 0v-10h-1v10a2.5 2.5 0 1 1-5 0V30.283l2.437-5.362-1.279-4.478a19 19 0 0 0-.43 1.688 64 64 0 0 0-.558 3.074v.006c-.075.449-.144.87-.21 1.236a2.5 2.5 0 1 1-4.92-.894c.048-.265.107-.617.176-1.04l.001-.008c.158-.96.369-2.239.623-3.422.185-.865.412-1.776.694-2.58.246-.7.662-1.72 1.41-2.443a2.5 2.5 0 0 1 1.094-.618"
    clip-rule="evenodd"
  />
</svg>
